X:1
T:Kitty in the Lane -- Reel
R:reel
B:Ryan's Mammoth Collection
N:389
Z:Contributed by Ray Davies,  ray:davies99.freeserve.co.uk
M:2/4
L:1/16
K:Dmix
vfe"^Segno"|\
|]d^cAB =cBcA | GFEG c2ce | d^cAB =cBcA | GFcE EDD2 |
d^cAB =cBcA | GFEG c2ce | d^cAB cBcA | GFcE EDD2 H |]
K:D
|:Adde f2ed | cdef g2fe | dcde f2ed | faeg fdd2 |
dcde f2ed | cdef g2fg | afge fded | cdeg fdec "^Segno"|]
